Numix-uTouch/48x48/apps/stock_notes.svg

<?xml version="1.0" encoding="UTF-8" standalone="no"?>
<svg
   xmlns:dc="http://purl.org/dc/elements/1.1/"
   xmlns:cc="http://creativecommons.org/ns#"
   xmlns:rdf="http://www.w3.org/1999/02/22-rdf-syntax-ns#"
   xmlns:svg="http://www.w3.org/2000/svg"
   xmlns="http://www.w3.org/2000/svg"
   xmlns:xlink="http://www.w3.org/1999/xlink"
   xmlns:sodipodi="http://sodipodi.sourceforge.net/DTD/sodipodi-0.dtd"
   xmlns:inkscape="http://www.inkscape.org/namespaces/inkscape"
   viewBox="0 0 48 48"
   width="48"
   height="48"
   id="svg2"
   version="1.1"
   inkscape:version="0.48.4 r9939"
   sodipodi:docname="bijiben.svg">
  <metadata
     id="metadata50">
    <rdf:RDF>
      <cc:Work
         rdf:about="">
        <dc:format>image/svg+xml</dc:format>
        <dc:type
           rdf:resource="http://purl.org/dc/dcmitype/StillImage" />
      </cc:Work>
    </rdf:RDF>
  </metadata>
  <sodipodi:namedview
     pagecolor="#ffffff"
     bordercolor="#666666"
     borderopacity="1"
     objecttolerance="10"
     gridtolerance="10"
     guidetolerance="10"
     inkscape:pageopacity="0"
     inkscape:pageshadow="2"
     inkscape:window-width="1280"
     inkscape:window-height="998"
     id="namedview48"
     showgrid="false"
     inkscape:zoom="6.9532167"
     inkscape:cx="47.71323"
     inkscape:cy="10.387703"
     inkscape:window-x="0"
     inkscape:window-y="0"
     inkscape:window-maximized="1"
     inkscape:current-layer="svg2" />
  <defs
     id="defs4">
    <linearGradient
       id="0">
      <stop
         stop-color="#49bcd8"
         id="stop7" />
      <stop
         offset="1"
         stop-color="#2c8dc1"
         id="stop9" />
    </linearGradient>
    <linearGradient
       gradientTransform="translate(-48,-1052.3622)"
       xlink:href="#0"
       id="1"
       y1="1050.36"
       x2="0"
       y2="1006.36"
       gradientUnits="userSpaceOnUse" />
    <radialGradient
       r="128"
       cy="160"
       cx="148.004"
       gradientTransform="matrix(0.1831,0,0,0.1831,-3.0107903,-5.29638)"
       gradientUnits="userSpaceOnUse"
       id="radialGradient3171"
       xlink:href="#radial0"
       inkscape:collect="always" />
    <radialGradient
       cx="148.004"
       cy="160"
       gradientTransform="matrix(0.1831,0,0,0.1831,-3.10029,-5.29688)"
       id="radial0"
       r="128"
       gradientUnits="userSpaceOnUse">
      <stop
         offset="0"
         style="stop-color:#aad7ff;stop-opacity:1;"
         id="stop7-9" />
      <stop
         offset="1"
         style="stop-color:#2898ff;stop-opacity:1;"
         id="stop9-3" />
    </radialGradient>
    <radialGradient
       r="128"
       cy="160"
       cx="148.004"
       gradientTransform="matrix(0.1831,0,0,0.1831,-3.10079,-5.2963804)"
       gradientUnits="userSpaceOnUse"
       id="radialGradient3012"
       xlink:href="#radial0"
       inkscape:collect="always" />
  </defs>
  <path
     inkscape:connector-curvature="0"
     style="fill:url(#radialGradient3012)"
     d="m 47.437,11.547375 0,24.90625 c 0,10.25 0,10.984375 -10.984375,10.984375 l -24.902344,0 C 0.562,47.438 0.562,46.703625 0.562,36.453625 l 0,-24.90625 c 0,-10.2500004 0,-10.9843754 10.988281,-10.9843754 l 24.902344,0 C 47.437,0.5629996 47.437,1.2973746 47.437,11.547375 z"
     id="path11" />
  <path
     inkscape:connector-curvature="0"
     id="path15"
     d="m 38.265125,47.438 c 2.542969,-0.01172 4.378906,-0.08203 5.710937,-0.441406 l -4.230468,-7.25 -4.484375,7.691406 1.191406,0 c 0.640625,0 1.242187,0 1.8125,0 z m 1.480469,-7.691406 -5.125,-8.789063 -5.128906,8.789063 z m 0,0 7.652344,0 c 0.03125,-0.972656 0.03906,-2.0625 0.03906,-3.296875 l 0,-1.097657 -2.5625,-4.394531 z m 5.128906,-8.789063 -5.128906,-8.789062 -5.125,8.789062 z m 0,0 2.5625,0 0,-4.394531 z m -10.253906,0 -5.128906,-8.789062 -5.125,8.789062 z m -10.253906,0 -5.128907,8.789063 10.253907,0 z m 0,0 -5.128907,-8.789062 -5.125,8.789062 z m -10.253907,0 -5.128906,8.789063 10.253906,0 z m 0,0 -5.128906,-8.789062 -5.125,8.789062 z m -10.253906,0 L 0.562,36.605969 c 0,1.167969 0.01172,2.210937 0.03906,3.140625 l 8.382813,0 z m 0,0 -3.296875,-5.648437 0,5.648437 z m 5.125,8.789063 -4.3125,7.394531 C 6.269031,47.434094 8.479969,47.438 11.550281,47.438 l 1.921875,0 z m 0,-17.578125 -5.125,-8.789063 -3.296875,5.648438 0,3.140625 z m 0,0 10.253906,0 -5.125,-8.789063 z m 5.128906,-8.789063 -5.128906,-8.7890627 -5.125,8.7890627 z m 0,0 10.253907,0 -5.128907,-8.7890627 z m 5.125,-8.7890627 -2.351562,-4.0273437 -5.335938,0 c -0.07813,0 -0.140625,0 -0.214843,0 L 8.983875,4.5903433 z m 0,0 10.253907,0 -2.351563,-4.0273437 -5.550781,0 z m 10.253907,0 10.253906,0 -2.351563,-4.0273437 c -0.3125,0 -0.609375,0 -0.941406,0 l -4.609375,0 z m 0,0 -5.125,8.7890627 10.253906,0 z m 5.128906,8.7890627 10.253906,0 -5.128906,-8.7890627 z m 0,0 -5.128906,8.789063 10.253906,0 z m 5.125,8.789063 7.691406,0 0,-4.394531 -2.5625,-4.394532 z m 5.128906,-8.789063 2.5625,0 0,-1.832031 c 0,-0.914063 -0.0078,-1.750001 -0.02344,-2.523438 z m -15.382812,8.789063 -5.125,-8.789063 -5.128907,8.789063 z m 10.253906,-17.5781257 7.308594,0 C 46.4995,1.8325306 45.167469,0.9614376 42.022938,0.6879996 z m -30.761719,0 L 6.679188,0.6372186 C 3.019031,0.8442496 1.538562,1.6333116 0.944812,4.5903433 z m -5.125,8.7890627 -3.238281,-5.554688 c -0.04297,1.074219 -0.05859,2.308594 -0.05859,3.722657 l 0,1.832031 z m 15.378906,26.367188 -4.484375,7.691406 8.972656,0 z m 10.253907,0 -4.484376,7.691406 8.972657,0 z M 2.59325,46.367688 0.991688,43.621594 C 1.284656,44.938 1.776844,45.801281 2.59325,46.367688 z"
     style="fill:#ffffff;fill-opacity:0.05100002" />
  <path
     d="M 14 12 C 12.892 12 12 12.892 12 14 L 12 34 C 12 35.108 12.892 36 14 36 L 34 36 C 35.108 36 36 35.108 36 34 L 36 14 C 36 12.892 35.108 12 34 12 L 14 12 z M 15 14 L 22 14 L 22 16 L 15 16 L 15 14 z M 15 19 L 33 19 L 33 20 L 15 20 L 15 19 z M 15 22 L 33 22 L 33 23 L 15 23 L 15 22 z M 15 25 L 33 25 L 33 26 L 15 26 L 15 25 z M 15 28 L 33 28 L 33 29 L 15 29 L 15 28 z M 26 32 L 33 32 L 33 34 L 26 34 L 26 32 z "
     id="rect28"
     style="fill:#f9f9f9;fill-opacity:1" />
</svg>

<svg xmlns="http://www.w3.org/2000/svg" viewBox="0 0 48 48"><defs><radialGradient id="0" cx="24" cy="24" r="23.437" gradientUnits="userSpaceOnUse"><stop stop-color="#41afd2"/><stop offset="1" stop-color="#218fb2"/></radialGradient></defs><path d="m 47.44 11.547 l 0 24.906 c 0 10.25 0 10.984 -10.984 10.984 l -24.902 0 c -10.988 0 -10.988 -0.734 -10.988 -10.984 l 0 -24.906 c 0 -10.25 0 -10.984 10.988 -10.984 l 24.902 0 c 10.984 0 10.984 0.734 10.984 10.984" fill="url(#0)"/><path d="m 14 12 c -1.109 0 -2 0.891 -2 2 l 0 20 c 0 1.109 0.891 2 2 2 l 20 0 c 1.105 0 2 -0.895 2 -2 l 0 -20 c 0 -1.105 -0.895 -2 -2 -2 m -19 2 l 7 0 l 0 2 l -7 0 m 0 3 l 18 0 l 0 1 l -18 0 m 0 2 l 18 0 l 0 1 l -18 0 m 0 2 l 18 0 l 0 1 l -18 0 m 0 2 l 18 0 l 0 1 l -18 0 m 11 3 l 7 0 l 0 2 l -7 0 m 0 -2" fill="#fff"/><path d="m 38.27 47.44 c 2.543 -0.012 4.379 -0.082 5.711 -0.441 l -4.23 -7.25 -4.484 7.691 1.191 0 c 0.641 0 1.242 0 1.813 0 z m 1.48 -7.691 -5.125 -8.789 -5.129 8.789 z m 0 0 7.652 0 c 0.031 -0.973 0.039 -2.063 0.039 -3.297 l 0 -1.098 -2.563 -4.395 z m 5.129 -8.789 -5.129 -8.789 -5.125 8.789 z m 0 0 2.563 0 0 -4.395 z m -10.254 0 -5.129 -8.789 -5.125 8.789 z m -10.254 0 -5.129 8.789 10.254 0 z m 0 0 -5.129 -8.789 -5.125 8.789 z m -10.254 0 -5.129 8.789 10.254 0 z m 0 0 -5.129 -8.789 -5.125 8.789 z m -10.254 0 -3.297 5.648 c 0 1.168 0.012 2.211 0.039 3.141 l 8.383 0 z m 0 0 -3.297 -5.648 0 5.648 z m 5.125 8.789 -4.313 7.395 c 1.598 0.293 3.809 0.297 6.879 0.297 l 1.922 0 z m 0 -17.578 -5.125 -8.789 -3.297 5.648 0 3.141 z m 0 0 10.254 0 -5.125 -8.789 z m 5.129 -8.789 -5.129 -8.789 -5.125 8.789 z m 0 0 10.254 0 -5.129 -8.789 z m 5.125 -8.789 -2.352 -4.03 -5.336 0 c -0.078 0 -0.141 0 -0.215 0 l -2.352 4.03 z m 0 0 10.254 0 -2.352 -4.03 -5.551 0 z m 10.254 0 10.254 0 l -2.352 -4.03 c -0.313 0 -0.609 0 -0.941 0 l -4.609 0 z m 0 0 -5.125 8.789 10.254 0 z m 5.129 8.789 10.254 0 -5.129 -8.789 z m 0 0 -5.129 8.789 10.254 0 z m 5.125 8.789 7.691 0 0 -4.395 -2.563 -4.395 z m 5.129 -8.789 2.563 0 0 -1.832 c 0 -0.914 -0.008 -1.75 -0.023 -2.523 z m -15.383 8.789 -5.125 -8.789 -5.129 8.789 z m 10.254 -17.578 7.309 0 c -0.555 -2.758 -1.887 -3.629 -5.03 -3.902 z m -30.762 0 l -2.305 -3.953 c -3.66 0.207 -5.141 0.996 -5.734 3.953 z m -5.125 8.789 l -3.238 -5.555 c -0.043 1.074 -0.059 2.309 -0.059 3.723 l 0 1.832 z m 15.379 26.367 -4.484 7.691 8.973 0 z m 10.254 0 -4.484 7.691 8.973 0 z m -26.898 6.621 -1.602 -2.746 c 0.293 1.316 0.785 2.18 1.602 2.746 z" fill="#fff" fill-opacity="0.082"/></svg>
